X: 02119
T: SARAH'S WHISTLE
C: Bob McQuillen Sept.'74
B: Bob's Note Book 1&2 #119
%R: reel
Z: 2019 John Chambers <jc:trillian.mit.edu>
M: C
L: 1/8
K: D
(3(ABc) \
| d2AG FAde | f2d2 d2 (3(ABc) | d2AG FAdf | e2A2 agfe |
| d2AG FAFA | d2AG FAdf | e2df efge | f2d2 d2 :|
|: fg \
| a2fd fddf | a2fd fddf | e2gf edef | edcB A2fg |
| a2fd fddf | a2fd fddf | gfeg f2d2 | edef d2  :|
%%begintext align
%% For Sarah Forbes Bauhan, with
%% love always and Happy Memories
%% of Hall I, II, III, IV, and V!
%%endtext

%%sep 1 1 500

%%sep 1 1 500

